X: 10
T: Forget Me Not
C: Larry Redican
Z: Jerry O'Donnell
S: https://thesession.org/tunes/233#setting51460
R: reel
M: 4/4
L: 1/8
K: Dmaj
|:(3ABc|defd BAFE|DB,~B,2 A,B,DE|FA~A2 d2cd|Beed egfe|
defd BAFE|DB,~B,2 A,B,DE|FAdf ecdB|AFEG FD:|
|:(3ABc|d2ad bdad|gdfd edBd|Ad~d2 Adfb|afdf e2(3fga|
be~e2 afef|defd dcBA | FAdf ecdB|AFEG FD:|

